X: 601
T: glasgow jig
M: 6/8
L: 1/8
R: jig
K: Amin
d|:"Am"EAA cBA|"F"FAA cBA|"G"GBB eBB|"Em"cBA BAG|
|"Am"EAA cBA|"F"FAA cBA|"G"GBB eBB|"Am"cBA A2G:|
|:"Am"aee cBA|"D7"aee cBA|"G"gdd Bdd|"Em"gdg bgb|
|"Am"aee cBA|"Am/G"aee cBA|"F"FEF ABc|"G"BAG "Am"A2a:|
